svg/fluentui-system-icons/ic_fluent_book_contacts_32_filled.svg

<svg width="32" height="32" viewBox="0 0 32 32" fill="none" xmlns="http://www.w3.org/2000/svg">
<path d="M5 6.5C5 4.567 6.567 3 8.5 3H23.5C25.433 3 27 4.567 27 6.5V24C27 25.1046 26.1046 26 25 26H7.08535C7.29127 26.5826 7.84689 27 8.5 27H26C26.5523 27 27 27.4477 27 28C27 28.5523 26.5523 29 26 29H8.5C6.567 29 5 27.433 5 25.5V6.5ZM21 16.5C21 15.6716 20.3284 15 19.5 15H12.5C11.6716 15 11 15.6716 11 16.5V17C11 18.9714 12.8595 21 16 21C19.1405 21 21 18.9714 21 17V16.5ZM18.75 11.25C18.75 9.73122 17.5188 8.5 16 8.5C14.4812 8.5 13.25 9.73122 13.25 11.25C13.25 12.7688 14.4812 14 16 14C17.5188 14 18.75 12.7688 18.75 11.25Z" fill="#212121"/>
</svg>

<svg xmlns="http://www.w3.org/2000/svg" width="32" height="32"><path d="M5 6.5A3.5 3.5 0 0 1 8.5 3h15A3.5 3.5 0 0 1 27 6.5V24a2 2 0 0 1-2 2H7.085A1.5 1.5 0 0 0 8.5 27H26a1 1 0 1 1 0 2H8.5A3.5 3.5 0 0 1 5 25.5v-19Zm16 10a1.5 1.5 0 0 0-1.5-1.5h-7a1.5 1.5 0 0 0-1.5 1.5v.5c0 1.971 1.86 4 5 4 3.14 0 5-2.029 5-4v-.5Zm-2.25-5.25a2.75 2.75 0 1 0-5.5 0 2.75 2.75 0 0 0 5.5 0Z"/></svg>
